app/assets/img/ic-eviction-prevention.svg

<svg fill="none" height="42" viewBox="0 0 42 42" width="42" xmlns="http://www.w3.org/2000/svg"><g fill="#3d94bc"><path d="m41.2229 19.6105-18.75-18.75005c-.8146-.8145843-2.1312-.8145843-2.9458 0l-18.750029 18.75005c-.595834.5958-.77500041 1.4916-.452083 2.2708.322916.7792 1.083332 1.2854 1.925002 1.2854h4.16667v16.6667c0 1.15.93333 2.0833 2.08333 2.0833h25.00001c1.15 0 2.0833-.9333 2.0833-2.0833v-16.6667h4.1667c.8417 0 1.6021-.5062 1.925-1.2854s.1438-1.675-.4521-2.2708zm-7.7229-.6105c-1.15 0-2.0833.9334-2.0833 2.0834v16.6667h-20.8334v-16.6667c0-1.15-.9333-2.0834-2.08331-2.0834h-1.22083l13.72084-13.7208 13.7208 13.7208z"/><path d="m18.9167 14.8334h4.1666v12.5h-4.1666z"/><path d="m22.8415 29.6586c1.017 1.017 1.017 2.6659 0 3.6829-1.017 1.0169-2.6659 1.0169-3.6829 0-1.017-1.017-1.017-2.6659 0-3.6829s2.6659-1.017 3.6829 0z"/></g></svg>

<svg width="42" height="42" viewBox="0 0 42 42" fill="none" xmlns="http://www.w3.org/2000/svg">
<path d="M41.2229 19.6105L22.4729 0.86045C21.6583 0.0458657 20.3417 0.0458657 19.5271 0.86045L0.777071 19.6105C0.181237 20.2063 0.00207059 21.1021 0.324988 21.8813C0.647904 22.6605 1.40832 23.1667 2.24999 23.1667H6.41666V39.8334C6.41666 40.9834 7.34999 41.9167 8.49999 41.9167H33.5C34.65 41.9167 35.5833 40.9834 35.5833 39.8334V23.1667H39.75C40.5917 23.1667 41.3521 22.6605 41.675 21.8813C41.9979 21.1021 41.8188 20.2063 41.2229 19.6105ZM33.5 19C32.35 19 31.4167 19.9334 31.4167 21.0834V37.7501H10.5833V21.0834C10.5833 19.9334 9.65 19 8.49999 19H7.27916L21 5.2792L34.7208 19H33.5Z" fill="#3D94BC"/>
<path d="M18.9167 14.8334H23.0833V27.3334H18.9167V14.8334Z" fill="#3D94BC"/>
<path d="M22.8415 29.6586C23.8585 30.6756 23.8585 32.3245 22.8415 33.3415C21.8245 34.3584 20.1756 34.3584 19.1586 33.3415C18.1416 32.3245 18.1416 30.6756 19.1586 29.6586C20.1756 28.6416 21.8245 28.6416 22.8415 29.6586Z" fill="#3D94BC"/>
</svg>
